dist/svg/static/lights-full-beam-large.svg

<svg xmlns="http://www.w3.org/2000/svg" width="48" height="48" viewBox="0 0 48 48"><path d="M4 33.5h13m-13-5h13m-13-5h13m-13-5h13m-13-5h13m25.5 10c0-5.791-11.555-10.894-18.312-13.655-2.417-.987-4.688.211-4.688 2.728v21.855c0 2.516 2.27 3.714 4.688 2.727C30.945 34.394 42.5 29.29 42.5 23.5z" fill="none" stroke="currentColor" stroke-miterlimit="10"/></svg>

<?xml version="1.0" encoding="UTF-8" standalone="no"?>
<svg width="48px" height="48px" viewBox="0 0 48 48" version="1.1" xmlns="http://www.w3.org/2000/svg" xmlns:xlink="http://www.w3.org/1999/xlink">
    <!-- Generator: sketchtool 46.2 (44496) - http://www.bohemiancoding.com/sketch -->
    <title>lights-full-beam-large</title>
    <desc>Created with sketchtool.</desc>
    <defs></defs>
    <g id="icons-published" stroke="none" stroke-width="1" fill="none" fill-rule="evenodd">
        <g id="briefing" transform="translate(-1152.000000, -922.000000)"></g>
        <g id="lights-full-beam-large" stroke="#000000">
            <path d="M4,33.5 L17,33.5 L4,33.5 Z M4,28.5 L17,28.5 L4,28.5 Z M4,23.5 L17,23.5 L4,23.5 Z M4,18.5 L17,18.5 L4,18.5 Z M4,13.5 L17,13.5 L4,13.5 Z M42.5,23.5 C42.5,17.7 30.9,12.6 24.2,9.8 C21.8,8.8 19.5,10 19.5,12.5 L19.5,34.4 C19.5,36.9 21.8,38.1 24.2,37.1 C30.9,34.4 42.5,29.3 42.5,23.5 Z" id="Shape"></path>
        </g>
    </g>
</svg>
